svg/loadbalancer.svg

<?xml version="1.0" encoding="UTF-8"?>
<svg xmlns="http://www.w3.org/2000/svg" xmlns:xlink="http://www.w3.org/1999/xlink" width="32" height="32" viewBox="0 0 32 32">
<path fill-rule="nonzero" fill="rgb(0%, 0%, 0%)" fill-opacity="1" d="M 0.363281 16 C 0.363281 7.394531 7.402344 0.363281 16 0.363281 C 24.648438 0.363281 31.636719 7.394531 31.636719 16 C 31.636719 24.640625 24.648438 31.636719 16 31.636719 C 7.402344 31.636719 0.363281 24.640625 0.363281 16 M 2.886719 15.25 L 2.886719 16.785156 L 7.394531 16.785156 L 7.394531 18.269531 L 9.449219 16.007812 L 7.394531 13.730469 L 7.394531 15.25 Z M 16.007812 21.804688 C 17.480469 21.808594 18.894531 21.226562 19.929688 20.179688 C 20.972656 19.140625 21.550781 17.726562 21.542969 16.253906 C 21.542969 13.199219 19.070312 10.707031 16.007812 10.707031 C 12.945312 10.707031 10.449219 13.199219 10.449219 16.253906 C 10.449219 19.34375 12.945312 21.804688 16.007812 21.804688 M 16.007812 11.941406 C 13.601562 11.941406 11.65625 13.882812 11.65625 16.253906 C 11.65625 18.65625 13.605469 20.605469 16.007812 20.605469 C 18.40625 20.597656 20.351562 18.652344 20.355469 16.253906 C 20.355469 13.882812 18.398438 11.941406 16.007812 11.941406 M 24.648438 9.191406 L 25.367188 10.394531 L 21.550781 12.53125 C 21.90625 12.878906 22.117188 13.324219 22.347656 13.730469 L 26.117188 11.644531 L 26.820312 12.84375 L 27.601562 9.949219 Z M 29.113281 16.042969 L 27.0625 13.730469 L 27.0625 15.25 L 23.070312 15.25 C 23.132812 15.5 23.132812 15.746094 23.132812 16.007812 C 23.132812 16.289062 23.132812 16.539062 23.070312 16.785156 L 27.0625 16.785156 L 27.0625 18.269531 Z M 27.601562 22.050781 L 26.820312 19.183594 L 26.117188 20.394531 L 22.347656 18.269531 C 22.117188 18.707031 21.90625 19.113281 21.550781 19.503906 L 25.367188 21.605469 L 24.648438 22.808594 Z M 27.601562 22.050781 "/>
<path fill-rule="nonzero" fill="rgb(100%, 100%, 100%)" fill-opacity="1" d="M 16 0.675781 C 7.535156 0.675781 0.675781 7.535156 0.675781 16 C 0.675781 24.464844 7.535156 31.324219 16 31.324219 C 24.464844 31.324219 31.324219 24.464844 31.324219 16 C 31.324219 7.535156 24.464844 0.675781 16 0.675781 "/>
<path fill-rule="nonzero" fill="rgb(0%, 0%, 0%)" fill-opacity="1" d="M 0.363281 16 C 0.363281 7.394531 7.402344 0.363281 16 0.363281 C 24.648438 0.363281 31.636719 7.394531 31.636719 16 C 31.636719 24.640625 24.648438 31.636719 16 31.636719 C 7.402344 31.636719 0.363281 24.640625 0.363281 16 M 2.886719 15.25 L 2.886719 16.785156 L 7.394531 16.785156 L 7.394531 18.269531 L 9.449219 16.007812 L 7.394531 13.730469 L 7.394531 15.25 Z M 16.007812 21.804688 C 17.480469 21.808594 18.894531 21.226562 19.929688 20.179688 C 20.972656 19.140625 21.550781 17.726562 21.542969 16.253906 C 21.542969 13.199219 19.070312 10.707031 16.007812 10.707031 C 12.945312 10.707031 10.449219 13.199219 10.449219 16.253906 C 10.449219 19.34375 12.945312 21.804688 16.007812 21.804688 M 16.007812 11.941406 C 13.601562 11.941406 11.65625 13.882812 11.65625 16.253906 C 11.65625 18.65625 13.605469 20.605469 16.007812 20.605469 C 18.40625 20.597656 20.351562 18.652344 20.355469 16.253906 C 20.355469 13.882812 18.398438 11.941406 16.007812 11.941406 M 24.648438 9.191406 L 25.367188 10.394531 L 21.550781 12.53125 C 21.90625 12.878906 22.117188 13.324219 22.347656 13.730469 L 26.117188 11.644531 L 26.820312 12.84375 L 27.601562 9.949219 Z M 29.113281 16.042969 L 27.0625 13.730469 L 27.0625 15.25 L 23.070312 15.25 C 23.132812 15.5 23.132812 15.746094 23.132812 16.007812 C 23.132812 16.289062 23.132812 16.539062 23.070312 16.785156 L 27.0625 16.785156 L 27.0625 18.269531 Z M 27.601562 22.050781 L 26.820312 19.183594 L 26.117188 20.394531 L 22.347656 18.269531 C 22.117188 18.707031 21.90625 19.113281 21.550781 19.503906 L 25.367188 21.605469 L 24.648438 22.808594 Z M 27.601562 22.050781 "/>
</svg>

<svg role="img" viewBox="0 0 32 32" xmlns="http://www.w3.org/2000/svg"><path d="M.363 16C.363 7.395 7.403.363 16 .363 24.648.363 31.637 7.395 31.637 16c0 8.64-6.989 15.637-15.637 15.637C7.402 31.637.363 24.64.363 16m2.524-.75v1.535h4.508v1.485l2.054-2.262-2.054-2.278v1.52Zm13.12 6.555a5.5 5.5 0 0 0 3.923-1.625 5.5 5.5 0 0 0 1.613-3.926c0-3.055-2.473-5.547-5.535-5.547s-5.559 2.492-5.559 5.547c0 3.09 2.496 5.55 5.559 5.55m0-9.863c-2.406 0-4.352 1.942-4.352 4.313a4.353 4.353 0 0 0 4.352 4.351 4.357 4.357 0 0 0 4.347-4.351c0-2.371-1.957-4.313-4.347-4.313m8.64-2.75.72 1.204-3.817 2.136c.355.348.566.793.797 1.2l3.77-2.086.702 1.199.782-2.895Zm4.465 6.852-2.05-2.313v1.52H23.07c.063.25.063.496.063.758 0 .281 0 .531-.063.777h3.992v1.485Zm-1.511 6.008-.782-2.867-.703 1.21-3.77-2.124c-.23.437-.44.843-.796 1.234l3.816 2.101-.719 1.204Zm0 0"/><path d="M16 .676C7.535.676.676 7.536.676 16c0 8.465 6.86 15.324 15.324 15.324 8.465 0 15.324-6.86 15.324-15.324C31.324 7.535 24.464.676 16 .676" fill="rgb(100%, 100%, 100%)"/><path d="M.363 16C.363 7.395 7.403.363 16 .363 24.648.363 31.637 7.395 31.637 16c0 8.64-6.989 15.637-15.637 15.637C7.402 31.637.363 24.64.363 16m2.524-.75v1.535h4.508v1.485l2.054-2.262-2.054-2.278v1.52Zm13.12 6.555a5.5 5.5 0 0 0 3.923-1.625 5.5 5.5 0 0 0 1.613-3.926c0-3.055-2.473-5.547-5.535-5.547s-5.559 2.492-5.559 5.547c0 3.09 2.496 5.55 5.559 5.55m0-9.863c-2.406 0-4.352 1.942-4.352 4.313a4.353 4.353 0 0 0 4.352 4.351 4.357 4.357 0 0 0 4.347-4.351c0-2.371-1.957-4.313-4.347-4.313m8.64-2.75.72 1.204-3.817 2.136c.355.348.566.793.797 1.2l3.77-2.086.702 1.199.782-2.895Zm4.465 6.852-2.05-2.313v1.52H23.07c.063.25.063.496.063.758 0 .281 0 .531-.063.777h3.992v1.485Zm-1.511 6.008-.782-2.867-.703 1.21-3.77-2.124c-.23.437-.44.843-.796 1.234l3.816 2.101-.719 1.204Zm0 0"/></svg>
